X: 140
T: Little gal’ll fool me
B: canberra pickers and fiddlers
B: old time tunes update
B: tunes
M:C|
L:1/8
R: Reel
Q: 1/4=100
K:D
V:1 
e-f-|:f3a fedd|fded d2d2|Jc3c- c2ea|1fdec d2d2:|2 fdec d2||
dB|:A2F2D2Ad|BGBG BBBB|A2F2D2 eg|1,2 fdec d2 (3dcB:|3fdec d2||
% abcbook-tune_id 67a7d9eca438a6fe5ea705d4
% abcbook-tune_composer_id 
% abcbook-link-0 https://www.youtube.com/watch?v=nKt7ui07a6U
% abcbook-link-title-0 Little Gal&#39;ll Fool Me
% abcbook-boost 0
% abcbook-difficulty 0
% abcbook-tags old time tunes
% abcbook-tablature 
% abcbook-transpose 
% abcbook-tuning ADAE
% abcbook-lastupdated 1739177920065
% abcbook-src-url 
% abcbook-soundfonts 
% abcbook-repeats 1


